images/3233894.svg

<?xml version="1.0" encoding="UTF-8"?>
<svg xmlns="http://www.w3.org/2000/svg" xmlns:xlink="http://www.w3.org/1999/xlink" width="300pt" height="300pt" viewBox="0 0 300 300" version="1.1">
<defs>
<g>
<symbol overflow="visible" id="glyph0-0">
<path style="stroke:none;" d="M 0.546875 1.9375 L 0.546875 -7.75 L 6.046875 -7.75 L 6.046875 1.9375 Z M 1.171875 1.328125 L 5.4375 1.328125 L 5.4375 -7.140625 L 1.171875 -7.140625 Z M 1.171875 1.328125 "/>
</symbol>
<symbol overflow="visible" id="glyph0-1">
<path style="stroke:none;" d="M 1.078125 -8.015625 L 2.546875 -8.015625 L 6.09375 -1.3125 L 6.09375 -8.015625 L 7.15625 -8.015625 L 7.15625 0 L 5.6875 0 L 2.125 -6.703125 L 2.125 0 L 1.078125 0 Z M 1.078125 -8.015625 "/>
</symbol>
</g>
</defs>
<g id="surface54229">
<rect x="0" y="0" width="300" height="300" style="fill:rgb(100%,100%,100%);fill-opacity:1;stroke:none;"/>
<path style="fill:none;stroke-width:1.2;stroke-linecap:butt;stroke-linejoin:miter;stroke:rgb(0%,0%,0%);stroke-opacity:1;stroke-miterlimit:10;" d="M 42.222656 119.0625 L 47.449219 132.136719 "/>
<path style="fill:none;stroke-width:1.2;stroke-linecap:butt;stroke-linejoin:miter;stroke:rgb(0%,0%,100%);stroke-opacity:1;stroke-miterlimit:10;" d="M 47.449219 132.136719 L 52.671875 145.210938 "/>
<path style="fill:none;stroke-width:1.2;stroke-linecap:butt;stroke-linejoin:miter;stroke:rgb(0%,0%,100%);stroke-opacity:1;stroke-miterlimit:10;" d="M 52.671875 145.210938 L 43.960938 156.273438 "/>
<path style="fill:none;stroke-width:1.2;stroke-linecap:butt;stroke-linejoin:miter;stroke:rgb(0%,0%,0%);stroke-opacity:1;stroke-miterlimit:10;" d="M 43.960938 156.273438 L 35.25 167.335938 "/>
<path style="fill:none;stroke-width:1.2;stroke-linecap:butt;stroke-linejoin:miter;stroke:rgb(0%,0%,100%);stroke-opacity:1;stroke-miterlimit:10;" d="M 52.671875 145.210938 L 66.609375 147.226562 "/>
<path style="fill:none;stroke-width:1.2;stroke-linecap:butt;stroke-linejoin:miter;stroke:rgb(0%,0%,0%);stroke-opacity:1;stroke-miterlimit:10;" d="M 66.609375 147.226562 L 80.542969 149.238281 "/>
<path style=" stroke:none;fill-rule:nonzero;fill:rgb(100%,100%,100%);fill-opacity:1;" d="M 48.671875 138.710938 L 56.671875 138.710938 L 56.671875 151.710938 L 48.671875 151.710938 Z M 48.671875 138.710938 "/>
<g style="fill:rgb(0%,0%,100%);fill-opacity:1;">
  <use xlink:href="#glyph0-1" x="48.671875" y="148.612305"/>
</g>
<path style="fill:none;stroke-width:1.2;stroke-linecap:butt;stroke-linejoin:miter;stroke:rgb(0%,0%,0%);stroke-opacity:1;stroke-miterlimit:10;" d="M 80.542969 149.238281 L 97.964844 127.113281 "/>
<path style="fill:none;stroke-width:1.2;stroke-linecap:butt;stroke-linejoin:miter;stroke:rgb(0%,0%,0%);stroke-opacity:1;stroke-miterlimit:10;" d="M 87.492188 151.125 L 101.429688 133.425781 "/>
<path style="fill:none;stroke-width:1.2;stroke-linecap:butt;stroke-linejoin:miter;stroke:rgb(0%,0%,0%);stroke-opacity:1;stroke-miterlimit:10;" d="M 90.992188 175.390625 L 80.542969 149.238281 "/>
<path style="fill:none;stroke-width:1.2;stroke-linecap:butt;stroke-linejoin:miter;stroke:rgb(0%,0%,0%);stroke-opacity:1;stroke-miterlimit:10;" d="M 97.964844 127.113281 L 125.839844 131.136719 "/>
<path style="fill:none;stroke-width:1.2;stroke-linecap:butt;stroke-linejoin:miter;stroke:rgb(0%,0%,0%);stroke-opacity:1;stroke-miterlimit:10;" d="M 125.839844 131.136719 L 136.289062 157.289062 "/>
<path style="fill:none;stroke-width:1.2;stroke-linecap:butt;stroke-linejoin:miter;stroke:rgb(0%,0%,0%);stroke-opacity:1;stroke-miterlimit:10;" d="M 120.730469 136.210938 L 129.089844 157.132812 "/>
<path style="fill:none;stroke-width:1.2;stroke-linecap:butt;stroke-linejoin:miter;stroke:rgb(0%,0%,0%);stroke-opacity:1;stroke-miterlimit:10;" d="M 136.289062 157.289062 L 118.867188 179.414062 "/>
<path style="fill:none;stroke-width:1.2;stroke-linecap:butt;stroke-linejoin:miter;stroke:rgb(0%,0%,0%);stroke-opacity:1;stroke-miterlimit:10;" d="M 136.289062 157.289062 L 164.160156 161.316406 "/>
<path style="fill:none;stroke-width:1.2;stroke-linecap:butt;stroke-linejoin:miter;stroke:rgb(0%,0%,0%);stroke-opacity:1;stroke-miterlimit:10;" d="M 118.867188 179.414062 L 90.992188 175.390625 "/>
<path style="fill:none;stroke-width:1.2;stroke-linecap:butt;stroke-linejoin:miter;stroke:rgb(0%,0%,0%);stroke-opacity:1;stroke-miterlimit:10;" d="M 117.027344 172.453125 L 94.730469 169.234375 "/>
<path style="fill:none;stroke-width:1.2;stroke-linecap:butt;stroke-linejoin:miter;stroke:rgb(0%,0%,0%);stroke-opacity:1;stroke-miterlimit:10;" d="M 164.160156 161.316406 L 169.386719 174.390625 "/>
<path style="fill:none;stroke-width:1.2;stroke-linecap:butt;stroke-linejoin:miter;stroke:rgb(0%,0%,100%);stroke-opacity:1;stroke-miterlimit:10;" d="M 169.386719 174.390625 L 174.609375 187.464844 "/>
<path style="fill:none;stroke-width:1.2;stroke-linecap:butt;stroke-linejoin:miter;stroke:rgb(0%,0%,0%);stroke-opacity:1;stroke-miterlimit:10;" d="M 171.359375 161.472656 L 175.539062 171.929688 "/>
<path style="fill:none;stroke-width:1.2;stroke-linecap:butt;stroke-linejoin:miter;stroke:rgb(0%,0%,100%);stroke-opacity:1;stroke-miterlimit:10;" d="M 175.539062 171.929688 L 179.71875 182.390625 "/>
<path style="fill:none;stroke-width:1.2;stroke-linecap:butt;stroke-linejoin:miter;stroke:rgb(0%,0%,100%);stroke-opacity:1;stroke-miterlimit:10;" d="M 181.582031 139.191406 L 172.871094 150.253906 "/>
<path style="fill:none;stroke-width:1.2;stroke-linecap:butt;stroke-linejoin:miter;stroke:rgb(0%,0%,0%);stroke-opacity:1;stroke-miterlimit:10;" d="M 172.871094 150.253906 L 164.160156 161.316406 "/>
<path style="fill:none;stroke-width:1.2;stroke-linecap:butt;stroke-linejoin:miter;stroke:rgb(0%,0%,100%);stroke-opacity:1;stroke-miterlimit:10;" d="M 174.609375 187.464844 L 188.546875 189.480469 "/>
<path style="fill:none;stroke-width:1.2;stroke-linecap:butt;stroke-linejoin:miter;stroke:rgb(0%,0%,0%);stroke-opacity:1;stroke-miterlimit:10;" d="M 188.546875 189.480469 L 202.480469 191.492188 "/>
<path style=" stroke:none;fill-rule:nonzero;fill:rgb(100%,100%,100%);fill-opacity:1;" d="M 170.609375 180.964844 L 178.609375 180.964844 L 178.609375 193.964844 L 170.609375 193.964844 Z M 170.609375 180.964844 "/>
<g style="fill:rgb(0%,0%,100%);fill-opacity:1;">
  <use xlink:href="#glyph0-1" x="170.609375" y="190.866211"/>
</g>
<path style="fill:none;stroke-width:1.2;stroke-linecap:butt;stroke-linejoin:miter;stroke:rgb(0%,0%,0%);stroke-opacity:1;stroke-miterlimit:10;" d="M 202.480469 191.492188 L 212.933594 217.640625 "/>
<path style="fill:none;stroke-width:1.2;stroke-linecap:butt;stroke-linejoin:miter;stroke:rgb(0%,0%,0%);stroke-opacity:1;stroke-miterlimit:10;" d="M 209.679688 191.648438 L 218.039062 212.566406 "/>
<path style="fill:none;stroke-width:1.2;stroke-linecap:butt;stroke-linejoin:miter;stroke:rgb(0%,0%,0%);stroke-opacity:1;stroke-miterlimit:10;" d="M 219.90625 169.367188 L 202.480469 191.492188 "/>
<path style="fill:none;stroke-width:1.2;stroke-linecap:butt;stroke-linejoin:miter;stroke:rgb(0%,0%,0%);stroke-opacity:1;stroke-miterlimit:10;" d="M 212.933594 217.640625 L 240.804688 221.667969 "/>
<path style="fill:none;stroke-width:1.2;stroke-linecap:butt;stroke-linejoin:miter;stroke:rgb(0%,0%,0%);stroke-opacity:1;stroke-miterlimit:10;" d="M 240.804688 221.667969 L 258.226562 199.542969 "/>
<path style="fill:none;stroke-width:1.2;stroke-linecap:butt;stroke-linejoin:miter;stroke:rgb(0%,0%,0%);stroke-opacity:1;stroke-miterlimit:10;" d="M 237.339844 215.355469 L 251.277344 197.65625 "/>
<path style="fill:none;stroke-width:1.2;stroke-linecap:butt;stroke-linejoin:miter;stroke:rgb(0%,0%,0%);stroke-opacity:1;stroke-miterlimit:10;" d="M 258.226562 199.542969 L 247.777344 173.390625 "/>
<path style="fill:none;stroke-width:1.2;stroke-linecap:butt;stroke-linejoin:miter;stroke:rgb(0%,0%,0%);stroke-opacity:1;stroke-miterlimit:10;" d="M 247.777344 173.390625 L 219.90625 169.367188 "/>
<path style="fill:none;stroke-width:1.2;stroke-linecap:butt;stroke-linejoin:miter;stroke:rgb(0%,0%,0%);stroke-opacity:1;stroke-miterlimit:10;" d="M 244.042969 179.546875 L 221.746094 176.328125 "/>
<path style="fill:none;stroke-width:1.2;stroke-linecap:butt;stroke-linejoin:miter;stroke:rgb(0%,0%,0%);stroke-opacity:1;stroke-miterlimit:10;" d="M 219.90625 169.367188 L 209.453125 143.214844 "/>
<path style="fill:none;stroke-width:1.2;stroke-linecap:butt;stroke-linejoin:miter;stroke:rgb(0%,0%,0%);stroke-opacity:1;stroke-miterlimit:10;" d="M 209.453125 143.214844 L 195.519531 141.203125 "/>
<path style="fill:none;stroke-width:1.2;stroke-linecap:butt;stroke-linejoin:miter;stroke:rgb(0%,0%,100%);stroke-opacity:1;stroke-miterlimit:10;" d="M 195.519531 141.203125 L 181.582031 139.191406 "/>
<path style="fill:none;stroke-width:1.2;stroke-linecap:butt;stroke-linejoin:miter;stroke:rgb(0%,0%,0%);stroke-opacity:1;stroke-miterlimit:10;" d="M 205.71875 149.371094 L 194.570312 147.761719 "/>
<path style="fill:none;stroke-width:1.2;stroke-linecap:butt;stroke-linejoin:miter;stroke:rgb(0%,0%,100%);stroke-opacity:1;stroke-miterlimit:10;" d="M 194.570312 147.761719 L 183.421875 146.152344 "/>
<path style="fill:none;stroke-width:1.2;stroke-linecap:butt;stroke-linejoin:miter;stroke:rgb(0%,0%,0%);stroke-opacity:1;stroke-miterlimit:10;" d="M 209.453125 143.214844 L 218.167969 132.152344 "/>
<path style="fill:none;stroke-width:1.2;stroke-linecap:butt;stroke-linejoin:miter;stroke:rgb(0%,0%,100%);stroke-opacity:1;stroke-miterlimit:10;" d="M 218.167969 132.152344 L 226.878906 121.089844 "/>
<path style=" stroke:none;fill-rule:nonzero;fill:rgb(100%,100%,100%);fill-opacity:1;" d="M 177.582031 132.691406 L 185.582031 132.691406 L 185.582031 145.691406 L 177.582031 145.691406 Z M 177.582031 132.691406 "/>
<g style="fill:rgb(0%,0%,100%);fill-opacity:1;">
  <use xlink:href="#glyph0-1" x="177.582031" y="142.592773"/>
</g>
<path style="fill:none;stroke-width:1.2;stroke-linecap:butt;stroke-linejoin:miter;stroke:rgb(0%,0%,100%);stroke-opacity:1;stroke-miterlimit:10;" d="M 226.878906 121.089844 L 223.046875 107.539062 "/>
<path style="fill:none;stroke-width:1.2;stroke-linecap:butt;stroke-linejoin:miter;stroke:rgb(0%,0%,0%);stroke-opacity:1;stroke-miterlimit:10;" d="M 223.046875 107.539062 L 219.21875 93.992188 "/>
<path style="fill:none;stroke-width:1.2;stroke-linecap:butt;stroke-linejoin:miter;stroke:rgb(0%,0%,0%);stroke-opacity:1;stroke-miterlimit:10;" d="M 255.015625 122.179688 L 240.949219 121.636719 "/>
<path style="fill:none;stroke-width:1.2;stroke-linecap:butt;stroke-linejoin:miter;stroke:rgb(0%,0%,100%);stroke-opacity:1;stroke-miterlimit:10;" d="M 240.949219 121.636719 L 226.878906 121.089844 "/>
<path style=" stroke:none;fill-rule:nonzero;fill:rgb(100%,100%,100%);fill-opacity:1;" d="M 222.878906 114.589844 L 230.878906 114.589844 L 230.878906 127.589844 L 222.878906 127.589844 Z M 222.878906 114.589844 "/>
<g style="fill:rgb(0%,0%,100%);fill-opacity:1;">
  <use xlink:href="#glyph0-1" x="222.878906" y="124.491211"/>
</g>
<path style="fill:none;stroke-width:1.2;stroke-linecap:butt;stroke-linejoin:miter;stroke:rgb(0%,0%,0%);stroke-opacity:1;stroke-miterlimit:10;" d="M 219.21875 93.992188 L 242.625 78.332031 "/>
<path style="fill:none;stroke-width:1.2;stroke-linecap:butt;stroke-linejoin:miter;stroke:rgb(0%,0%,0%);stroke-opacity:1;stroke-miterlimit:10;" d="M 225.242188 97.933594 L 243.96875 85.40625 "/>
<path style="fill:none;stroke-width:1.2;stroke-linecap:butt;stroke-linejoin:miter;stroke:rgb(0%,0%,0%);stroke-opacity:1;stroke-miterlimit:10;" d="M 242.625 78.332031 L 253.6875 87.042969 "/>
<path style="fill:none;stroke-width:1.2;stroke-linecap:butt;stroke-linejoin:miter;stroke:rgb(0%,0%,100%);stroke-opacity:1;stroke-miterlimit:10;" d="M 253.6875 87.042969 L 264.75 95.753906 "/>
<path style="fill:none;stroke-width:1.2;stroke-linecap:butt;stroke-linejoin:miter;stroke:rgb(0%,0%,100%);stroke-opacity:1;stroke-miterlimit:10;" d="M 264.75 95.753906 L 259.882812 108.96875 "/>
<path style="fill:none;stroke-width:1.2;stroke-linecap:butt;stroke-linejoin:miter;stroke:rgb(0%,0%,0%);stroke-opacity:1;stroke-miterlimit:10;" d="M 259.882812 108.96875 L 255.015625 122.179688 "/>
<path style="fill:none;stroke-width:1.2;stroke-linecap:butt;stroke-linejoin:miter;stroke:rgb(0%,0%,100%);stroke-opacity:1;stroke-miterlimit:10;" d="M 257.558594 96.105469 L 253.664062 106.675781 "/>
<path style="fill:none;stroke-width:1.2;stroke-linecap:butt;stroke-linejoin:miter;stroke:rgb(0%,0%,0%);stroke-opacity:1;stroke-miterlimit:10;" d="M 253.664062 106.675781 L 249.773438 117.246094 "/>
<path style=" stroke:none;fill-rule:nonzero;fill:rgb(100%,100%,100%);fill-opacity:1;" d="M 260.75 89.253906 L 268.75 89.253906 L 268.75 102.253906 L 260.75 102.253906 Z M 260.75 89.253906 "/>
<g style="fill:rgb(0%,0%,100%);fill-opacity:1;">
  <use xlink:href="#glyph0-1" x="260.75" y="99.155273"/>
</g>
</g>
</svg>

<svg xmlns="http://www.w3.org/2000/svg" xmlns:xlink="http://www.w3.org/1999/xlink" width="300pt" height="300pt" viewBox="0 0 300 300"><defs><symbol overflow="visible"><path d="M.547 1.938V-7.75h5.5v9.688zm.625-.61h4.266v-8.47H1.171zm0 0"/></symbol><symbol overflow="visible" id="a"><path d="M1.078-8.016h1.47l3.546 6.704v-6.704h1.062V0H5.688L2.124-6.703V0H1.078zm0 0"/></symbol></defs><g><path fill="#fff" d="M0 0h300v300H0z"/><path d="M42.223 119.063l5.226 13.074" stroke-width="1.2" stroke="#000" stroke-miterlimit="10" fill="none"/><path d="M47.45 132.137l5.222 13.074M52.672 145.21l-8.71 11.063" stroke-width="1.2" stroke="#00f" stroke-miterlimit="10" fill="none"/><path d="M43.96 156.273l-8.71 11.063" stroke-width="1.2" stroke="#000" stroke-miterlimit="10" fill="none"/><path d="M52.672 145.21l13.937 2.017" stroke-width="1.2" stroke="#00f" stroke-miterlimit="10" fill="none"/><path d="M66.61 147.227l13.933 2.01" stroke-width="1.2" stroke="#000" stroke-miterlimit="10" fill="none"/><path d="M48.672 138.71h8v13h-8zm0 0" fill="#fff"/><use xlink:href="#a" x="48.672" y="148.612" fill="#00f"/><path d="M80.543 149.238l17.422-22.125M87.492 151.125l13.938-17.7M90.992 175.39l-10.45-26.152M97.965 127.113l27.875 4.024M125.84 131.137l10.45 26.152M120.73 136.21l8.36 20.923M136.29 157.29l-17.423 22.124M136.29 157.29l27.87 4.026M118.867 179.414l-27.875-4.023M117.027 172.453l-22.297-3.22M164.16 161.316l5.227 13.075" stroke-width="1.2" stroke="#000" stroke-miterlimit="10" fill="none"/><path d="M169.387 174.39l5.222 13.075" stroke-width="1.2" stroke="#00f" stroke-miterlimit="10" fill="none"/><path d="M171.36 161.473l4.18 10.457" stroke-width="1.2" stroke="#000" stroke-miterlimit="10" fill="none"/><path d="M175.54 171.93l4.18 10.46M181.582 139.19l-8.71 11.064" stroke-width="1.2" stroke="#00f" stroke-miterlimit="10" fill="none"/><path d="M172.87 150.254l-8.71 11.062" stroke-width="1.2" stroke="#000" stroke-miterlimit="10" fill="none"/><path d="M174.61 187.465l13.937 2.015" stroke-width="1.2" stroke="#00f" stroke-miterlimit="10" fill="none"/><path d="M188.547 189.48l13.933 2.012" stroke-width="1.2" stroke="#000" stroke-miterlimit="10" fill="none"/><path d="M170.61 180.965h8v13h-8zm0 0" fill="#fff"/><use xlink:href="#a" x="170.609" y="190.866" fill="#00f"/><path d="M202.48 191.492l10.454 26.15M209.68 191.648l8.36 20.918M219.906 169.367l-17.426 22.125M212.934 217.64l27.87 4.028M240.805 221.668l17.422-22.125M237.34 215.355l13.937-17.7M258.227 199.543l-10.45-26.152M247.777 173.39l-27.87-4.023M244.043 179.547l-22.297-3.22M219.906 169.367l-10.453-26.152M209.453 143.215l-13.933-2.012" stroke-width="1.2" stroke="#000" stroke-miterlimit="10" fill="none"/><path d="M195.52 141.203l-13.938-2.012" stroke-width="1.2" stroke="#00f" stroke-miterlimit="10" fill="none"/><path d="M205.72 149.37l-11.15-1.608" stroke-width="1.2" stroke="#000" stroke-miterlimit="10" fill="none"/><path d="M194.57 147.762l-11.148-1.61" stroke-width="1.2" stroke="#00f" stroke-miterlimit="10" fill="none"/><path d="M209.453 143.215l8.715-11.063" stroke-width="1.2" stroke="#000" stroke-miterlimit="10" fill="none"/><path d="M218.168 132.152l8.71-11.062" stroke-width="1.2" stroke="#00f" stroke-miterlimit="10" fill="none"/><path d="M177.582 132.69h8v13h-8zm0 0" fill="#fff"/><use xlink:href="#a" x="177.582" y="142.593" fill="#00f"/><path d="M226.88 121.09l-3.833-13.55" stroke-width="1.2" stroke="#00f" stroke-miterlimit="10" fill="none"/><path d="M223.047 107.54L219.22 93.99M255.016 122.18l-14.067-.543" stroke-width="1.2" stroke="#000" stroke-miterlimit="10" fill="none"/><path d="M240.95 121.637l-14.07-.547" stroke-width="1.2" stroke="#00f" stroke-miterlimit="10" fill="none"/><path d="M222.88 114.59h8v13h-8zm0 0" fill="#fff"/><use xlink:href="#a" x="222.879" y="124.491" fill="#00f"/><path d="M219.22 93.992l23.405-15.66M225.242 97.934l18.727-12.528M242.625 78.332l11.063 8.71" stroke-width="1.2" stroke="#000" stroke-miterlimit="10" fill="none"/><path d="M253.688 87.043l11.062 8.71M264.75 95.754l-4.867 13.215" stroke-width="1.2" stroke="#00f" stroke-miterlimit="10" fill="none"/><path d="M259.883 108.97l-4.867 13.21" stroke-width="1.2" stroke="#000" stroke-miterlimit="10" fill="none"/><path d="M257.56 96.105l-3.896 10.57" stroke-width="1.2" stroke="#00f" stroke-miterlimit="10" fill="none"/><path d="M253.664 106.676l-3.89 10.57" stroke-width="1.2" stroke="#000" stroke-miterlimit="10" fill="none"/><path d="M260.75 89.254h8v13h-8zm0 0" fill="#fff"/><use xlink:href="#a" x="260.75" y="99.155" fill="#00f"/></g></svg>
